common/svg/theme-icon.svg

<svg fill="none" height="20" viewBox="0 0 20 20" width="20" xmlns="http://www.w3.org/2000/svg"><path clip-rule="evenodd" d="m20 16c0 2.2091-1.7909 4-4 4h-12c-2.20914 0-4-1.7909-4-4v-12c0-2.20914 1.79086-4 4-4h12c2.2091 0 4 1.79086 4 4zm-17.39736 1.4309 14.81186-14.84484c-.362-.36209-.8621-.58606-1.4145-.58606h-12c-1.10457 0-2 .89543-2 2v12c0 .5608.23082 1.0677.60264 1.4309z" fill="#000" fill-rule="evenodd"/></svg>

<svg width="20" height="20" viewBox="0 0 20 20" fill="none" xmlns="http://www.w3.org/2000/svg">
<path fill-rule="evenodd" clip-rule="evenodd" d="M20 16C20 18.2091 18.2091 20 16 20H4C1.79086 20 0 18.2091 0 16V4C0 1.79086 1.79086 0 4 0H16C18.2091 0 20 1.79086 20 4V16ZM2.60264 17.4309L17.4145 2.58606C17.0525 2.22397 16.5524 2 16 2H4C2.89543 2 2 2.89543 2 4V16C2 16.5608 2.23082 17.0677 2.60264 17.4309Z" fill="black"/>
</svg>
